X:1
T:RVW2/1/55 May Song
T:RVW2/1/55 May Song
T:Transcribed by Simon Furey and Lewis Jones
C:Transcribed by Simon Furey and Lewis Jones
L:1/8
Q:1/4=120
M:4/4
K:D
V:1 treble 
V:1
"^(Editorial suggestion)" E2 | E2 BA G2 G2 | ABAG F2 A2 | G2 F2 E2"^(a)" d2 | B6 B2 | e2 dc B2 A2 | %6
 GF E2 d2 e2 | d2 BA G2 F2 | E6 || E2 | E2 BA G2 G2 | ABAG F2 A2 | G2 F2 E2"^(a) var." dc | B6 B2 | %14
 e2 dc B2 A2 | GF E2 d2 e2 | d2 BA G2 F2 | E6 |] %18

